Dominus_Dark_Funeral/22/apps/preferences-desktop.svg

<svg xmlns="http://www.w3.org/2000/svg" width="24" height="24" version="1"><defs><linearGradient id="a" x1="64" x2="64" y1="21.94" y2="104.06" gradientUnits="userSpaceOnUse"><stop offset="0" stop-color="#dadada"/><stop offset="1" stop-color="#ccc"/></linearGradient></defs><path d="M5.92 1.24a1.13 1.13 0 0 0-.63.22l-.14.1c-.5.37-.62 1.09-.25 1.59l2.13 2.92a2.21 2.21 0 0 1-4.05-1.53.57.57 0 0 0-.89-.54v-.01A5.07 5.07 0 0 0 .06 7.78a6.71 6.71 0 0 0 1.3 4.45 6.67 6.67 0 0 0 4.3 2.7 5.04 5.04 0 0 0 1.85-.03L3 21.09a1.13 1.13 0 0 0 .25 1.58l.14.1a1.13 1.13 0 0 0 1.58-.24L12 12.89l6.95 9.54a1.13 1.13 0 0 0 1.59.24l.14-.1a1.13 1.13 0 0 0 .25-1.58l-4.34-5.95a5.04 5.04 0 0 0 1.68 0 6.67 6.67 0 0 0 4.28-2.7 6.71 6.71 0 0 0 1.32-4.46 5.07 5.07 0 0 0-2.03-3.78.57.57 0 0 0-.9.54 2.21 2.21 0 0 1-4.04 1.53l2.12-2.92c.37-.5.26-1.21-.24-1.58l-.14-.1a1.13 1.13 0 0 0-1.59.24l-2.18 3-2-.65a.57.57 0 0 0-.72-.45l-.35.11h-.03a.57.57 0 0 0-.63.21l-2.09.67L6.87 1.7a1.13 1.13 0 0 0-.95-.47zm6 4.54l1.1 1.55L12 8.74l-1.1-1.51 1.03-1.45zM8.96 8.7l1.54 2.11-1.58 2.17a2.27 2.27 0 0 1-1.58-2.48c.14-.9.8-1.6 1.62-1.8zm6.02.11c.83.22 1.49.9 1.63 1.8a2.27 2.27 0 0 1-1.46 2.44l-1.63-2.24 1.46-2z" fill="#e6e6e6"/></svg>

<?xml version="1.0" encoding="UTF-8" standalone="no"?>
<svg
   xmlns:dc="http://purl.org/dc/elements/1.1/"
   xmlns:cc="http://creativecommons.org/ns#"
   xmlns:rdf="http://www.w3.org/1999/02/22-rdf-syntax-ns#"
   xmlns:svg="http://www.w3.org/2000/svg"
   xmlns="http://www.w3.org/2000/svg"
   xmlns:sodipodi="http://sodipodi.sourceforge.net/DTD/sodipodi-0.dtd"
   xmlns:inkscape="http://www.inkscape.org/namespaces/inkscape"
   width="24"
   height="24"
   version="1"
   id="svg11"
   sodipodi:docname="preferences-desktop.svg"
   inkscape:version="0.92.4 (5da689c313, 2019-01-14)">
  <metadata
     id="metadata15">
    <rdf:RDF>
      <cc:Work
         rdf:about="">
        <dc:format>image/svg+xml</dc:format>
        <dc:type
           rdf:resource="http://purl.org/dc/dcmitype/StillImage" />
        <dc:title></dc:title>
      </cc:Work>
    </rdf:RDF>
  </metadata>
  <sodipodi:namedview
     pagecolor="#ffffff"
     bordercolor="#666666"
     borderopacity="1"
     objecttolerance="10"
     gridtolerance="10"
     guidetolerance="10"
     inkscape:pageopacity="0"
     inkscape:pageshadow="2"
     inkscape:window-width="1138"
     inkscape:window-height="480"
     id="namedview13"
     showgrid="false"
     inkscape:zoom="9.8333333"
     inkscape:cx="1.0677966"
     inkscape:cy="12"
     inkscape:window-x="0"
     inkscape:window-y="25"
     inkscape:window-maximized="0"
     inkscape:current-layer="svg11" />
  <defs
     id="defs7">
    <linearGradient
       id="a"
       x1="64"
       x2="64"
       y1="21.94"
       y2="104.06"
       gradientUnits="userSpaceOnUse">
      <stop
         offset="0"
         stop-color="#dadada"
         id="stop2" />
      <stop
         offset="1"
         stop-color="#ccc"
         id="stop4" />
    </linearGradient>
  </defs>
  <path
     d="M 5.92,1.24 A 1.13,1.13 0 0 0 5.29,1.46 L 5.15,1.56 C 4.65,1.93 4.53,2.65 4.9,3.15 L 7.03,6.07 A 2.21,2.21 0 0 1 2.98,4.54 0.57,0.57 0 0 0 2.09,4 V 3.99 a 5.07,5.07 0 0 0 -2.03,3.79 6.71,6.71 0 0 0 1.3,4.45 6.67,6.67 0 0 0 4.3,2.7 5.04,5.04 0 0 0 1.85,-0.03 L 3,21.09 a 1.13,1.13 0 0 0 0.25,1.58 l 0.14,0.1 a 1.13,1.13 0 0 0 1.58,-0.24 l 7.03,-9.64 6.95,9.54 a 1.13,1.13 0 0 0 1.59,0.24 l 0.14,-0.1 a 1.13,1.13 0 0 0 0.25,-1.58 l -4.34,-5.95 a 5.04,5.04 0 0 0 1.68,0 6.67,6.67 0 0 0 4.28,-2.7 6.71,6.71 0 0 0 1.32,-4.46 5.07,5.07 0 0 0 -2.03,-3.78 0.57,0.57 0 0 0 -0.9,0.54 2.21,2.21 0 0 1 -4.04,1.53 l 2.12,-2.92 c 0.37,-0.5 0.26,-1.21 -0.24,-1.58 l -0.14,-0.1 a 1.13,1.13 0 0 0 -1.59,0.24 l -2.18,3 -2,-0.65 A 0.57,0.57 0 0 0 12.15,3.71 L 11.8,3.82 H 11.77 A 0.57,0.57 0 0 0 11.14,4.03 L 9.05,4.7 6.87,1.7 A 1.13,1.13 0 0 0 5.92,1.23 Z m 6,4.54 1.1,1.55 L 12,8.74 10.9,7.23 11.93,5.78 Z M 8.96,8.7 10.5,10.81 8.92,12.98 A 2.27,2.27 0 0 1 7.34,10.5 C 7.48,9.6 8.14,8.9 8.96,8.7 Z m 6.02,0.11 c 0.83,0.22 1.49,0.9 1.63,1.8 a 2.27,2.27 0 0 1 -1.46,2.44 l -1.63,-2.24 z"
     id="path9"
     inkscape:connector-curvature="0"
     style="fill:#e6e6e6" />
</svg>
